gama.ui.shared/icons_svg/dark/views/perspective.modeling.svg

<svg height="24.75" viewBox="-418.358 -3025.16 24.741 24.75" width="24.741" xmlns="http://www.w3.org/2000/svg"><g fill="none"><path d="m-401.18276-3024.7847h-13.6c-1.76731 0-3.2 1.4327-3.2 3.2v13.6c0 1.7673 1.43269 3.2 3.2 3.2h13.6c1.76731 0 3.2-1.4327 3.2-3.2v-13.6c0-1.7673-1.43269-3.2-3.2-3.2z" fill="#8797a7"/><path d="m-397.1913-3020.7847h-13.6c-1.76733 0-3.2 1.4327-3.2 3.2v13.6c0 1.7673 1.43267 3.2 3.2 3.2h13.6c1.7673 0 3.2-1.4327 3.2-3.2v-13.6c0-1.7673-1.4327-3.2-3.2-3.2z" fill="#66727e"/><path d="m-401.6613-3014.694-7.6667 7.6668v1.5267h1.5267l7.66665-7.6667zm.4733-.4732 1.5267 1.5267.86-.86-1.5267-1.5267zm-8.80665 10v-2c0-.0868.03335-.1733.1-.2333l9.33335-9.3335c.1333-.1332.34-.1332.4733 0l2 2c.13335.1335.13335.34 0 .4735l-9.34 9.3265c-.06.06-.14665.1-.2333.1h-2c-.1867 0-.33335-.1465-.33335-.3332z" fill="#fff"/></g></svg>

<?xml version="1.0" encoding="UTF-8" standalone="no"?>
<!DOCTYPE svg PUBLIC "-//W3C//DTD SVG 1.1//EN" "http://www.w3.org/Graphics/SVG/1.1/DTD/svg11.dtd">
<svg xmlns:dc="http://purl.org/dc/elements/1.1/" xmlns="http://www.w3.org/2000/svg" version="1.1" xmlns:xl="http://www.w3.org/1999/xlink" viewBox="-418.35776 -3025.1597 24.74144 24.75" width="24.74144" height="24.75">
  <defs/>
  <g id="SOURCES" stroke="none" fill-opacity="1" stroke-opacity="1" fill="none" stroke-dasharray="none">
    <title>SOURCES</title>
    <g id="SOURCES_Dark">
      <title>Dark</title>
      <g id="Group_12670">
        <g id="Graphic_11067">
          <path d="M -401.18276 -3024.7847 L -414.78276 -3024.7847 C -416.55007 -3024.7847 -417.98276 -3023.352 -417.98276 -3021.5847 L -417.98276 -3007.9847 C -417.98276 -3006.2174 -416.55007 -3004.7847 -414.78276 -3004.7847 L -401.18276 -3004.7847 C -399.41545 -3004.7847 -397.98276 -3006.2174 -397.98276 -3007.9847 L -397.98276 -3021.5847 C -397.98276 -3023.352 -399.41545 -3024.7847 -401.18276 -3024.7847 Z" fill="#8797a7"/>
        </g>
        <g id="Graphic_11066">
          <path d="M -397.1913 -3020.7847 L -410.7913 -3020.7847 C -412.55863 -3020.7847 -413.9913 -3019.352 -413.9913 -3017.5847 L -413.9913 -3003.9847 C -413.9913 -3002.2174 -412.55863 -3000.7847 -410.7913 -3000.7847 L -397.1913 -3000.7847 C -395.424 -3000.7847 -393.9913 -3002.2174 -393.9913 -3003.9847 L -393.9913 -3017.5847 C -393.9913 -3019.352 -395.424 -3020.7847 -397.1913 -3020.7847 Z" fill="#66727e"/>
        </g>
        <g id="Graphic_11065">
          <path d="M -401.6613 -3014.694 L -409.328 -3007.0272 L -409.328 -3005.5005 L -407.8013 -3005.5005 L -400.13465 -3013.1672 Z M -401.188 -3015.1672 L -399.6613 -3013.6405 L -398.8013 -3014.5005 L -400.328 -3016.0272 Z M -409.99465 -3005.1672 L -409.99465 -3007.1672 C -409.99465 -3007.254 -409.9613 -3007.3405 -409.89465 -3007.4005 L -400.5613 -3016.734 C -400.428 -3016.8672 -400.2213 -3016.8672 -400.088 -3016.734 L -398.088 -3014.734 C -397.95465 -3014.6005 -397.95465 -3014.394 -398.088 -3014.2605 L -407.428 -3004.934 C -407.488 -3004.874 -407.57465 -3004.834 -407.6613 -3004.834 L -409.6613 -3004.834 C -409.848 -3004.834 -409.99465 -3004.9805 -409.99465 -3005.1672 Z" fill="white"/>
        </g>
      </g>
    </g>
  </g>
</svg>
